packages/design-assets/icons/24px/Pencil.svg

<?xml version="1.0" encoding="UTF-8"?>
<svg width="24px" height="24px" viewBox="0 0 24 24" version="1.1" xmlns="http://www.w3.org/2000/svg" xmlns:xlink="http://www.w3.org/1999/xlink">
    <!-- Generator: Sketch 54.1 (76490) - https://sketchapp.com -->
    <title>Icons/24px/Pencil</title>
    <desc>Created with Sketch.</desc>
    <g id="Icons/24px/Pencil" stroke="none" stroke-width="1" fill="none" fill-rule="evenodd">
        <path d="M19.2734846,8.56599316 L20.9714641,6.86801369 L17.1319863,3.02853592 L15.4340068,4.7265154 L19.2734846,8.56599316 L19.2734846,8.56599316 Z M17.7592166,10.0802611 L13.9197389,6.24078336 L2.14149829,18.0190239 L2.14149829,21.8585017 L5.98097605,21.8585017 L17.7592166,10.0802611 L17.7592166,10.0802611 Z M0,24 L0,17.1319863 L17.1319863,-3.55271368e-15 L24,6.86801369 L6.86801369,24 L0,24 Z" id="i-24-pencil" fill="#818F99"></path>
    </g>
</svg>

<svg width="24" height="24" xmlns="http://www.w3.org/2000/svg"><path d="M19.273 8.566l1.698-1.698-3.839-3.84-1.698 1.699 3.84 3.839zM17.76 10.08l-3.84-3.84L2.142 18.02v3.84h3.84L17.759 10.08zM0 24v-6.868L17.132 0 24 6.868 6.868 24H0z" fill="#818F99" fill-rule="evenodd"/></svg>
